X:1
T:Title
%%score { ( 1 3 ) | 2 }
L:1/8
M:4/4
K:F
V:1 treble nm="Grand Piano"
V:3 treble 
V:2 bass 
V:1
 z4 z[Q:1/4=100] CFG | A6 z2 | A6 z2 | [CEG]3 [CEG] [CF]2 [CEG]2 | [CFA]4 z CFG | A6 z2 | A6 z2 | %7
 [DG]3 [DG] F2 E2 | F4 z ccA | d6 z2 | B6 z2 | c6 z2 |[M:5/8] A-A- A3 |[M:3/8] CFG |[M:4/4] A6 z2 | %15
 A6 z2 | [DG]3 [DG] F2 E2 |[M:5/8] F- F3 z |] %18
V:2
 z8 | z [F,C][F,C][F,C] .[F,C]2 z2 | z [F,C][F,C][F,C] [F,C]2 [F,A,]2 | C,3 B,, A,,2 C,2 | F,4 z4 | %5
 z [F,C][F,C][F,C] .[F,C]2 z2 | z [F,C][F,C][F,C] [F,C]2 [F,A,C]2 | %7
 [B,,B,]3 [B,,B,] [C,A,C]2 [C,G,C]2 | [F,A,C]4 z4 | z [D,A,][D,A,][D,A,] .[D,D]2 z2 | %10
 z [G,D][G,D][G,D] .[G,D]2 z2 | z [C,C][C,C][C,C] .[C,C]2 z2 |[M:5/8] z [F,C][F,C] [F,C][F,C] | %13
[M:3/8] z3 |[M:4/4] z [F,C][F,C][F,C] .[F,C]2 z2 | z [F,C][F,C][F,C] [F,C]2 [F,A,C]2 | %16
 [B,,B,]3 [B,,B,] [C,A,C]2 [C,G,C]2 |[M:5/8] [F,A,C]- [F,A,C]3 z |] %18
V:3
 x8 | z FFF Fcdc | z FFF F2 F2 | x8 | x8 | z FFF Fcdc | z FFF F2 F2 | x8 | x8 | z FFF FcBA | %10
 z GGG GBBG | z EEE EBAG |[M:5/8] z FF FF |[M:3/8] x3 |[M:4/4] z FFF Fcdc | z FFF F2 F2 | x8 | %17
[M:5/8] x5 |] %18

